;FLAVOR:Marlin
;TIME:15705
;Filament used: 11.1746m
;Layer height: 0.2
;MINX:59.352
;MINY:62.852
;MINZ:0.2
;MAXX:175.648
;MAXY:172.145
;MAXZ:12
;TARGET_MACHINE.NAME:Creality Ender-3
;Generated with Cura_SteamEngine 5.9.0
M140 S50
M105
M190 S50
M104 S200
M105
M109 S200
M82 ;absolute extrusion mode
; Ender 3 Custom Start G-code
G92 E0 ; Reset Extruder
G28 ; Home all axes
G1 Z2.0 F3000 ; Move Z Axis up little to prevent scratching of Heat Bed
G1 X0.1 Y20 Z0.3 F5000.0 ; Move to start position
G1 X0.1 Y200.0 Z0.3 F1500.0 E15 ; Draw the first line
G1 X0.4 Y200.0 Z0.3 F5000.0 ; Move to side a little
G1 X0.4 Y20 Z0.3 F1500.0 E30 ; Draw the second line
G92 E0 ; Reset Extruder
G1 Z2.0 F3000 ; Move Z Axis up little to prevent scratching of Heat Bed
G1 X5 Y20 Z0.3 F5000.0 ; Move over to prevent blob squish
G92 E0
G92 E0
G1 F2700 E-5
;LAYER_COUNT:60
;LAYER:0
M107
G0 F6000 X110.272 Y64.114 Z0.2
;TYPE:SKIRT
G1 F2700 E0
G1 F1200 X110.914 Y64.972 E0.03564
G1 X111.417 Y66.032 E0.07467
G1 X111.648 Y67.062 E0.10977
G1 X111.651 Y78.349 E0.48518
G1 X124.352 Y78.349 E0.90762
G1 X124.363 Y77.568 E0.9336
G1 X125.039 Y75.989 E0.99073
G1 X125.962 Y74.995 E1.03584
G1 X126.558 Y74.508 E1.06144
G1 X127.703 Y74.016 E1.10289
G1 X128.515 Y73.852 E1.13044
G1 X142.851 Y73.849 E1.60726
G1 X142.859 Y73.385 E1.6227
G1 X142.937 Y72.897 E1.63913
G1 X143.495 Y71.665 E1.68412
G1 X144.057 Y70.771 E1.71924
G1 X144.962 Y70.093 E1.75685
G1 X146.045 Y69.58 E1.79671
G1 X147.05 Y69.352 E1.83098
G1 X171.498 Y69.365 E2.64413
G1 X172.148 Y69.458 E2.66596
G1 X173.344 Y69.967 E2.7092
G1 X174.274 Y70.618 E2.74695
G1 X174.914 Y71.472 E2.78245
G1 X175.417 Y72.534 E2.82153
G1 X175.648 Y73.565 E2.85667
G1 X175.636 Y98.998 E3.70258
G1 X175.544 Y99.641 E3.72418
G1 X174.948 Y101.023 E3.77424
G1 X174.115 Y101.931 E3.81522
G1 X173.428 Y102.498 E3.84485
G1 X172.24 Y102.981 E3.88751
G1 X171.582 Y103.148 E3.91008
G1 X167.151 Y103.151 E4.05746
G1 X167.135 Y158.998 E5.91494
G1 X167.042 Y159.648 E5.93678
G1 X166.533 Y160.844 E5.98001
G1 X165.882 Y161.774 E6.01777
G1 X165.028 Y162.414 E6.05326
G1 X163.967 Y162.917 E6.09232
G1 X162.936 Y163.148 E6.12746
G1 X147.647 Y163.151 E6.63597
G1 X147.637 Y163.936 E6.66208
G1 X147.04 Y165.329 E6.71249
G1 X146.381 Y166.275 E6.75084
G1 X145.526 Y166.913 E6.78632
G1 X144.472 Y167.415 E6.82515
G1 X143.438 Y167.648 E6.8604
G1 X129.148 Y167.657 E7.33569
G1 X129.139 Y168.193 E7.35352
G1 X129.031 Y168.677 E7.37001
G1 X128.487 Y169.867 E7.41353
G1 X127.932 Y170.728 E7.4476
G1 X127.04 Y171.412 E7.48499
G1 X125.83 Y171.983 E7.52949
G1 X125.051 Y172.113 E7.55576
G1 X100.622 Y172.145 E8.36827
G1 X99.864 Y172.045 E8.3937
G1 X98.641 Y171.519 E8.43798
G1 X97.734 Y170.891 E8.47467
G1 X97.089 Y170.033 E8.51037
G1 X96.557 Y168.877 E8.5527
G1 X96.361 Y168.213 E8.57572
G1 X96.353 Y167.651 E8.59442
G1 X82.002 Y167.635 E9.07173
G1 X81.352 Y167.542 E9.09357
G1 X80.154 Y167.032 E9.13688
G1 X79.224 Y166.381 E9.17464
G1 X78.584 Y165.525 E9.21019
G1 X78.026 Y164.287 E9.25535
G1 X77.861 Y163.698 E9.2757
G1 X77.853 Y163.151 E9.29389
G1 X63.502 Y163.135 E9.77121
G1 X62.852 Y163.042 E9.79305
G1 X61.656 Y162.533 E9.83628
G1 X60.726 Y161.882 E9.87404
G1 X60.086 Y161.028 E9.90953
G1 X59.583 Y159.966 E9.94861
G1 X59.352 Y158.935 E9.98376
G1 X59.364 Y67.003 E13.04143
G1 X59.456 Y66.36 E13.06303
G1 X59.98 Y65.146 E13.10701
G1 X60.614 Y64.228 E13.14412
G1 X61.472 Y63.586 E13.17976
G1 X62.534 Y63.083 E13.21884
G1 X63.565 Y62.852 E13.25398
G1 X107.379 Y62.855 E14.71124
G1 X108.135 Y62.955 E14.73661
G1 X109.35 Y63.477 E14.78059
G1 X110.272 Y64.114 E14.81786
G0 F6000 X110.571 Y65.182
G1 F1200 X111.036 Y66.162 E14.85394
G1 X111.248 Y67.105 E14.88609
G1 X111.251 Y78.528 E15.26602
G1 X111.348 Y78.681 E15.27204
G1 X111.476 Y78.749 E15.27686
G1 X124.551 Y78.749 E15.71174
G1 X124.673 Y78.675 E15.71649
G1 X124.75 Y78.5 E15.72284
G1 X124.762 Y77.654 E15.75099
G1 X125.381 Y76.209 E15.80327
G1 X126.215 Y75.305 E15.84418
G1 X126.767 Y74.854 E15.86789
G1 X127.826 Y74.399 E15.90622
G1 X128.554 Y74.252 E15.93093
G1 X142.984 Y74.249 E16.41087
G1 X143.131 Y74.205 E16.41597
G1 X143.247 Y74.052 E16.42236
G1 X143.259 Y73.392 E16.44431
G1 X143.323 Y73.015 E16.45703
G1 X143.834 Y71.878 E16.49849
G1 X144.357 Y71.046 E16.53118
G1 X145.172 Y70.436 E16.56504
G1 X146.174 Y69.961 E16.60192
G1 X147.095 Y69.752 E16.63333
G1 X171.442 Y69.761 E17.44311
G1 X172.039 Y69.846 E17.46317
G1 X173.149 Y70.319 E17.5033
G1 X173.992 Y70.909 E17.53753
G1 X174.571 Y71.682 E17.56965
G1 X175.036 Y72.663 E17.60576
G1 X175.248 Y73.608 E17.63797
G1 X175.24 Y98.941 E18.48055
G1 X175.155 Y99.533 E18.50044
G1 X174.608 Y100.802 E18.5464
G1 X173.82 Y101.661 E18.58517
G1 X173.224 Y102.149 E18.61079
G1 X172.089 Y102.61 E18.65154
G1 X171.533 Y102.748 E18.67059
G1 X167.009 Y102.751 E18.82106
G1 X166.883 Y102.789 E18.82544
G1 X166.779 Y102.882 E18.83008
G1 X166.751 Y102.997 E18.83401
G1 X166.739 Y158.942 E20.69475
G1 X166.654 Y159.539 E20.71481
G1 X166.181 Y160.649 E20.75494
G1 X165.591 Y161.492 E20.78916
G1 X164.818 Y162.071 E20.82129
G1 X163.838 Y162.536 E20.85736
G1 X162.893 Y162.748 E20.88958
G1 X147.513 Y162.751 E21.40112
G1 X147.333 Y162.823 E21.40756
G1 X147.249 Y162.94 E21.41235
G1 X147.238 Y163.85 E21.44262
G1 X146.687 Y165.136 E21.48916
G1 X146.09 Y165.993 E21.5239
G1 X145.317 Y166.57 E21.55598
G1 X144.34 Y167.035 E21.59197
G1 X143.394 Y167.248 E21.62422
G1 X128.936 Y167.257 E22.10509
G1 X128.829 Y167.323 E22.10927
G1 X128.75 Y167.5 E22.11572
G1 X128.74 Y168.148 E22.13728
G1 X128.651 Y168.547 E22.15087
G1 X128.123 Y169.701 E22.19308
G1 X127.635 Y170.452 E22.22287
G1 X126.831 Y171.068 E22.25656
G1 X125.71 Y171.597 E22.29779
G1 X124.985 Y171.718 E22.32223
G1 X100.674 Y171.748 E23.13082
G1 X99.968 Y171.655 E23.15451
G1 X98.839 Y171.169 E23.19539
G1 X98.014 Y170.598 E23.22876
G1 X97.434 Y169.827 E23.26085
G1 X96.941 Y168.764 E23.29982
G1 X96.76 Y168.152 E23.32105
G1 X96.75 Y167.449 E23.34443
G1 X96.67 Y167.317 E23.34957
G1 X96.499 Y167.251 E23.35566
G1 X82.058 Y167.239 E23.83597
G1 X81.461 Y167.154 E23.85603
G1 X80.349 Y166.68 E23.89623
G1 X79.506 Y166.09 E23.93046
G1 X78.931 Y165.321 E23.96239
G1 X78.411 Y164.179 E24.00413
G1 X78.26 Y163.641 E24.02271
G1 X78.25 Y162.948 E24.04577
G1 X78.189 Y162.846 E24.04972
G1 X78.002 Y162.751 E24.05669
G1 X63.558 Y162.739 E24.5371
G1 X62.961 Y162.654 E24.55716
G1 X61.851 Y162.181 E24.59729
G1 X61.008 Y161.591 E24.63151
G1 X60.429 Y160.818 E24.66364
G1 X59.964 Y159.837 E24.69975
G1 X59.752 Y158.892 E24.73196
G1 X59.76 Y67.06 E27.7863
G1 X59.845 Y66.468 E27.80619
G1 X60.331 Y65.341 E27.84702
G1 X60.905 Y64.51 E27.88061
G1 X61.682 Y63.929 E27.91288
G1 X62.663 Y63.464 E27.94898
G1 X63.608 Y63.252 E27.9812
G1 X107.326 Y63.252 E29.43526
G1 X108.028 Y63.345 E29.45882
G1 X109.159 Y63.831 E29.49976
G1 X109.99 Y64.405 E29.53335
G1 X110.571 Y65.182 E29.56562
G0 F6000 X110.656 Y66.296
G1 F1200 X110.848 Y67.149 E29.5947
G1 X110.851 Y78.606 E29.97576
G1 X110.934 Y78.811 E29.98312
G1 X111.091 Y78.996 E29.99119
G1 X111.376 Y79.149 E30.00195
G1 X124.562 Y79.149 E30.44051
G1 X124.711 Y79.119 E30.44557
G1 X124.966 Y78.965 E30.45548
G1 X125.089 Y78.761 E30.4634
G1 X125.149 Y78.564 E30.47025
G1 X125.161 Y77.739 E30.49769
G1 X125.722 Y76.429 E30.54509
G1 X126.468 Y75.615 E30.58181
G1 X126.976 Y75.2 E30.60363
G1 X127.949 Y74.782 E30.63885
G1 X128.593 Y74.652 E30.66071
G1 X143.044 Y74.649 E31.14135
G1 X143.365 Y74.552 E31.1525
G1 X143.587 Y74.278 E31.16423
G1 X143.646 Y74.134 E31.16941
G1 X143.659 Y73.399 E31.19386
G1 X143.708 Y73.133 E31.20285
G1 X144.173 Y72.091 E31.2408
G1 X144.657 Y71.321 E31.27105
G1 X145.378 Y70.781 E31.30101
G1 X146.307 Y70.341 E31.3352
G1 X147.14 Y70.152 E31.36361
G1 X171.385 Y70.157 E32.17
G1 X171.93 Y70.235 E32.18832
G1 X172.954 Y70.671 E32.22533
G1 X173.71 Y71.2 E32.25602
G1 X174.226 Y71.888 E32.28463
G1 X174.656 Y72.796 E32.31804
G1 X174.848 Y73.651 E32.34719
G1 X174.844 Y98.884 E33.18644
G1 X174.766 Y99.425 E33.20462
G1 X174.268 Y100.581 E33.24648
G1 X173.567 Y101.351 E33.28112
G1 X173.018 Y101.8 E33.30471
G1 X171.938 Y102.239 E33.34348
G1 X171.484 Y102.348 E33.35901
G1 X166.951 Y102.351 E33.50978
G1 X166.7 Y102.426 E33.51849
G1 X166.516 Y102.565 E33.52616
G1 X166.409 Y102.709 E33.53213
G1 X166.351 Y102.948 E33.54031
G1 X166.343 Y158.885 E35.40078
G1 X166.265 Y159.43 E35.41909
G1 X165.829 Y160.454 E35.45611
G1 X165.3 Y161.21 E35.4868
G1 X164.612 Y161.726 E35.5154
G1 X163.704 Y162.156 E35.54882
G1 X162.85 Y162.348 E35.57793
G1 X147.461 Y162.351 E36.08977
G1 X147.246 Y162.409 E36.09718
G1 X147.058 Y162.521 E36.10446
G1 X146.893 Y162.751 E36.11387
G1 X146.85 Y162.918 E36.11961
G1 X146.839 Y163.764 E36.14775
G1 X146.333 Y164.945 E36.19048
G1 X145.801 Y165.71 E36.22147
G1 X145.108 Y166.227 E36.25023
G1 X144.208 Y166.655 E36.28338
G1 X143.35 Y166.848 E36.31263
G1 X128.929 Y166.851 E36.79227
G1 X128.788 Y166.879 E36.79705
G1 X128.536 Y167.033 E36.80687
G1 X128.413 Y167.237 E36.8148
G1 X128.351 Y167.436 E36.82173
G1 X128.341 Y168.102 E36.84388
G1 X128.27 Y168.418 E36.85466
G1 X127.759 Y169.535 E36.89551
G1 X127.339 Y170.175 E36.92097
G1 X126.622 Y170.724 E36.95101
G1 X125.59 Y171.211 E36.98896
G1 X124.919 Y171.323 E37.01159
G1 X100.674 Y171.348 E37.81798
G1 X100.078 Y171.266 E37.83799
G1 X99.033 Y170.817 E37.87582
G1 X98.294 Y170.305 E37.90572
G1 X97.779 Y169.62 E37.93423
G1 X97.325 Y168.651 E37.96982
G1 X97.159 Y168.09 E37.98928
G1 X97.149 Y167.336 E38.01436
G1 X96.972 Y167.043 E38.02574
G1 X96.795 Y166.913 E38.03305
G1 X96.548 Y166.851 E38.04152
G1 X82.115 Y166.843 E38.52156
G1 X81.57 Y166.765 E38.53987
G1 X80.544 Y166.328 E38.57696
G1 X79.788 Y165.799 E38.60765
G1 X79.277 Y165.116 E38.63602
G1 X78.775 Y164.013 E38.67633
G1 X78.659 Y163.584 E38.69111
G1 X78.649 Y162.835 E38.71602
G1 X78.487 Y162.567 E38.72644
G1 X78.267 Y162.414 E38.73535
G1 X78.062 Y162.351 E38.74249
G1 X63.615 Y162.343 E39.22299
G1 X63.07 Y162.265 E39.24131
G1 X62.046 Y161.829 E39.27832
G1 X61.29 Y161.3 E39.30901
G1 X60.774 Y160.612 E39.33762
G1 X60.344 Y159.704 E39.37103
G1 X60.152 Y158.849 E39.40018
G1 X60.156 Y67.117 E42.4512
G1 X60.234 Y66.576 E42.46938
G1 X60.682 Y65.536 E42.50704
G1 X61.196 Y64.792 E42.53712
G1 X61.888 Y64.274 E42.56587
G1 X62.796 Y63.844 E42.59928
G1 X63.651 Y63.652 E42.62843
G1 X107.326 Y63.652 E44.08106
G1 X107.922 Y63.734 E44.10107
G1 X108.964 Y64.182 E44.1388
G1 X109.708 Y64.696 E44.16887
G1 X110.226 Y65.388 E44.19762
G1 X110.656 Y66.296 E44.23104
G0 F6000 X110.448 Y67.193
G1 F1200 X110.451 Y78.684 E44.61323
G1 X110.589 Y79.022 E44.62537
G1 X110.835 Y79.312 E44.63802
G1 X111.212 Y79.515 E44.65226
G1 X111.439 Y79.549 E44.6599
G1 X124.603 Y79.549 E45.09773
G1 X124.858 Y79.497 E45.10639
G1 X125.258 Y79.257 E45.12191
G1 X125.458 Y78.924 E45.13483
G1 X125.548 Y78.627 E45.14515
G1 X125.56 Y77.824 E45.17186
G1 X126.063 Y76.649 E45.21437
G1 X126.721 Y75.925 E45.24691
G1 X127.185 Y75.546 E45.26684
G1 X128.072 Y75.165 E45.29894
G1 X128.632 Y75.052 E45.31794
G1 X143.104 Y75.049 E45.79929
G1 X143.485 Y74.934 E45.81252
G1 X143.67 Y74.811 E45.81991
G1 X143.935 Y74.484 E45.83391
G1 X144.045 Y74.218 E45.84348
G1 X144.059 Y73.406 E45.8705
G1 X144.093 Y73.251 E45.87577
G1 X144.538 Y72.254 E45.91209
G1 X144.956 Y71.597 E45.93799
G1 X145.588 Y71.124 E45.96424
G1 X146.436 Y70.722 E45.99546
G1 X147.185 Y70.552 E46.021
G1 X171.328 Y70.553 E46.824
G1 X171.821 Y70.624 E46.84057
G1 X172.759 Y71.023 E46.87447
G1 X173.428 Y71.491 E46.90162
G1 X173.883 Y72.098 E46.92686
G1 X174.275 Y72.925 E46.9573
G1 X174.448 Y73.694 E46.98351
G1 X174.448 Y98.827 E47.81944
G1 X174.377 Y99.317 E47.83591
G1 X173.928 Y100.36 E47.87367
G1 X173.271 Y101.082 E47.90614
G1 X172.813 Y101.452 E47.92573
G1 X171.845 Y101.85 E47.96054
G1 X171.437 Y101.948 E47.97449
G1 X166.892 Y101.951 E48.12566
G1 X166.516 Y102.064 E48.13872
G1 X166.23 Y102.279 E48.15062
G1 X166.039 Y102.537 E48.1613
G1 X165.951 Y102.899 E48.17369
G1 X165.947 Y158.828 E50.03389
G1 X165.876 Y159.321 E50.05046
G1 X165.477 Y160.259 E50.08436
G1 X165.009 Y160.928 E50.11152
G1 X164.402 Y161.383 E50.13675
G1 X163.575 Y161.775 E50.16719
G1 X162.806 Y161.948 E50.1934
G1 X147.407 Y161.951 E50.70558
G1 X147.091 Y162.037 E50.71647
G1 X146.781 Y162.22 E50.72844
G1 X146.523 Y162.58 E50.74317
G1 X146.451 Y162.865 E50.75295
G1 X146.44 Y163.678 E50.77999
G1 X145.979 Y164.754 E50.81893
G1 X145.511 Y165.427 E50.84619
G1 X144.899 Y165.884 E50.8716
G1 X144.076 Y166.275 E50.9019
G1 X143.306 Y166.448 E50.92815
G1 X128.891 Y166.451 E51.4076
G1 X128.639 Y166.501 E51.41614
G1 X128.244 Y166.743 E51.43155
G1 X128.045 Y167.072 E51.44434
G1 X127.952 Y167.374 E51.45485
G1 X127.941 Y168.096 E51.47886
G1 X127.906 Y168.253 E51.48421
G1 X127.425 Y169.316 E51.52302
G1 X127.044 Y169.897 E51.54613
G1 X126.413 Y170.38 E51.57256
G1 X125.47 Y170.825 E51.60724
G1 X124.853 Y170.928 E51.62804
G1 X100.674 Y170.948 E52.43224
G1 X100.184 Y170.877 E52.44871
G1 X99.231 Y170.467 E52.48322
G1 X98.576 Y170.013 E52.50972
G1 X98.122 Y169.41 E52.53483
G1 X97.687 Y168.481 E52.56895
G1 X97.558 Y168.032 E52.58448
G1 X97.549 Y167.394 E52.60571
G1 X97.497 Y167.139 E52.61436
G1 X97.274 Y166.769 E52.62873
G1 X96.968 Y166.544 E52.64136
G1 X96.598 Y166.451 E52.65405
G1 X82.172 Y166.447 E53.13386
G1 X81.679 Y166.376 E53.15043
G1 X80.739 Y165.976 E53.18441
G1 X80.07 Y165.508 E53.21156
G1 X79.622 Y164.909 E53.23644
G1 X79.161 Y163.908 E53.27309
G1 X79.058 Y163.528 E53.28619
G1 X79.049 Y162.893 E53.30731
G1 X78.997 Y162.639 E53.31593
G1 X78.786 Y162.287 E53.32958
G1 X78.446 Y162.051 E53.34335
G1 X78.12 Y161.951 E53.35469
G1 X63.672 Y161.947 E53.83523
G1 X63.179 Y161.876 E53.8518
G1 X62.241 Y161.477 E53.8857
G1 X61.572 Y161.009 E53.91286
G1 X61.117 Y160.402 E53.93809
G1 X60.725 Y159.575 E53.96853
G1 X60.552 Y158.806 E53.99475
G1 X60.552 Y67.174 E57.04244
G1 X60.623 Y66.684 E57.05891
G1 X61.033 Y65.731 E57.09341
G1 X61.487 Y65.074 E57.11997
G1 X62.098 Y64.617 E57.14535
G1 X62.925 Y64.225 E57.17579
G1 X63.694 Y64.052 E57.20201
G1 X107.326 Y64.052 E58.65321
G1 X107.816 Y64.123 E58.66968
G1 X108.769 Y64.533 E58.70419
G1 X109.426 Y64.987 E58.73075
G1 X109.883 Y65.598 E58.75613
G1 X110.275 Y66.425 E58.78657
G1 X110.448 Y67.193 E58.81275
G0 F6000 X110.048 Y67.237
G1 F1200 X110.051 Y78.645 E59.19218
G1 X110.098 Y78.877 E59.20005
G1 X110.235 Y79.213 E59.21212
G1 X110.372 Y79.419 E59.22035
G1 X110.578 Y79.621 E59.22995
G1 X110.82 Y79.785 E59.23967
G1 X111.103 Y79.904 E59.24988
G1 X111.408 Y79.949 E59.26014
G1 X124.644 Y79.949 E59.70037
G1 X125.005 Y79.875 E59.71262
G1 X125.449 Y79.609 E59.72984
G1 X125.636 Y79.404 E59.73907
G1 X125.827 Y79.085 E59.75143
G1 X125.947 Y78.69 E59.76516
G1 X125.959 Y77.909 E59.79114
G1 X126.404 Y76.868 E59.8288
G1 X126.974 Y76.235 E59.85713
G1 X127.394 Y75.892 E59.87517
G1 X128.194 Y75.549 E59.90412
G1 X128.672 Y75.452 E59.92034
G1 X143.145 Y75.449 E60.40171
G1 X143.425 Y75.392 E60.41122
G1 X143.674 Y75.288 E60.42019
G1 X143.927 Y75.121 E60.43027
G1 X144.117 Y74.927 E60.43931
G1 X144.287 Y74.678 E60.44933
G1 X144.405 Y74.394 E60.45956
G1 X144.448 Y74.091 E60.46974
G1 X144.459 Y73.412 E60.49233
G1 X144.875 Y72.469 E60.52661
G1 X145.254 Y71.874 E60.55007
G1 X145.794 Y71.469 E60.57252
G1 X146.569 Y71.102 E60.60104
G1 X147.23 Y70.952 E60.62359
G1 X171.328 Y70.953 E61.42509
G1 X171.711 Y71.012 E61.43798
G1 X172.564 Y71.375 E61.46881
G1 X173.146 Y71.782 E61.49243
G1 X173.539 Y72.306 E61.51422
G1 X173.895 Y73.056 E61.54183
G1 X174.048 Y73.738 E61.56508
G1 X174.048 Y98.827 E62.39954
G1 X173.989 Y99.208 E62.41236
G1 X173.588 Y100.139 E62.44608
G1 X173.019 Y100.771 E62.47436
G1 X172.606 Y101.105 E62.49203
G1 X171.752 Y101.461 E62.5228
G1 X171.39 Y101.548 E62.53519
G1 X166.853 Y101.551 E62.68609
G1 X166.57 Y101.608 E62.69569
G1 X166.317 Y101.714 E62.70481
G1 X165.943 Y101.994 E62.72035
G1 X165.669 Y102.366 E62.73572
G1 X165.551 Y102.849 E62.75226
G1 X165.547 Y158.828 E64.61413
G1 X165.488 Y159.211 E64.62701
G1 X165.125 Y160.064 E64.65785
G1 X164.718 Y160.646 E64.68147
G1 X164.194 Y161.039 E64.70325
G1 X163.444 Y161.395 E64.73087
G1 X162.762 Y161.548 E64.75411
G1 X147.355 Y161.551 E65.26655
G1 X146.933 Y161.665 E65.28109
