;FLAVOR:Marlin
;TIME:15766
;Filament used: 11.1739m
;Layer height: 0.2
;MINX:59.352
;MINY:62.852
;MINZ:0.2
;MAXX:175.648
;MAXY:172.148
;MAXZ:12
;TARGET_MACHINE.NAME:Creality Ender-3
;Generated with Cura_SteamEngine 5.9.0
M140 S50
M105
M190 S50
M104 S200
M105
M109 S200
M82 ;absolute extrusion mode
; Ender 3 Custom Start G-code
G92 E0 ; Reset Extruder
G28 ; Home all axes
G1 Z2.0 F3000 ; Move Z Axis up little to prevent scratching of Heat Bed
G1 X0.1 Y20 Z0.3 F5000.0 ; Move to start position
G1 X0.1 Y200.0 Z0.3 F1500.0 E15 ; Draw the first line
G1 X0.4 Y200.0 Z0.3 F5000.0 ; Move to side a little
G1 X0.4 Y20 Z0.3 F1500.0 E30 ; Draw the second line
G92 E0 ; Reset Extruder
G1 Z2.0 F3000 ; Move Z Axis up little to prevent scratching of Heat Bed
G1 X5 Y20 Z0.3 F5000.0 ; Move over to prevent blob squish
G92 E0
G92 E0
G1 F2700 E-5
;LAYER_COUNT:60
;LAYER:0
M107
G0 F6000 X67.849 Y103.152 Z0.2
;TYPE:SKIRT
G1 F2700 E0
G1 F1200 X63.481 Y103.14 E0.14528
G1 X62.894 Y103.056 E0.165
G1 X61.712 Y102.555 E0.2077
G1 X60.927 Y102.027 E0.23917
G1 X60.014 Y100.956 E0.28598
G1 X59.484 Y99.635 E0.33332
G1 X59.352 Y99.095 E0.35181
G1 X59.36 Y73.479 E1.2038
G1 X59.446 Y72.874 E1.22412
G1 X59.948 Y71.748 E1.26513
G1 X60.429 Y70.972 E1.29549
G1 X61.532 Y70.013 E1.34411
G1 X62.777 Y69.507 E1.3888
G1 X63.386 Y69.352 E1.40971
G1 X87.999 Y69.364 E2.22834
G1 X88.642 Y69.456 E2.24994
G1 X90.009 Y70.037 E2.29934
G1 X91.005 Y70.961 E2.34453
G1 X91.487 Y71.553 E2.36992
G1 X92.048 Y72.875 E2.41769
G1 X92.138 Y73.848 E2.45019
G1 X106.66 Y73.852 E2.93319
G1 X107.284 Y74.022 E2.9547
G1 X108.273 Y74.436 E2.99036
G1 X109.076 Y74.976 E3.02255
G1 X109.969 Y76.025 E3.06837
G1 X110.547 Y77.36 E3.11675
G1 X110.637 Y78.348 E3.14975
G1 X123.348 Y78.349 E3.57252
G1 X123.36 Y66.979 E3.95069
G1 X123.446 Y66.374 E3.97101
G1 X123.948 Y65.248 E4.01202
G1 X124.429 Y64.472 E4.04238
G1 X125.532 Y63.513 E4.091
G1 X126.777 Y63.007 E4.13569
G1 X127.386 Y62.852 E4.1566
G1 X171.479 Y62.852 E5.62313
G1 X172.297 Y63.018 E5.6509
G1 X173.481 Y63.525 E5.69373
G1 X174.373 Y64.319 E5.73345
G1 X174.983 Y65.03 E5.76461
G1 X175.472 Y66.214 E5.80722
G1 X175.648 Y66.88 E5.83013
G1 X175.64 Y159.021 E8.89475
G1 X175.554 Y159.626 E8.91508
G1 X175.052 Y160.752 E8.95608
G1 X174.571 Y161.528 E8.98645
G1 X173.468 Y162.487 E9.03506
G1 X172.223 Y162.993 E9.07976
G1 X171.614 Y163.148 E9.10066
G1 X157.148 Y163.151 E9.5818
G1 X157.14 Y163.772 E9.60246
G1 X157.072 Y164.085 E9.61311
G1 X156.552 Y165.252 E9.6556
G1 X156.071 Y166.028 E9.68597
G1 X154.968 Y166.987 E9.73458
G1 X153.723 Y167.493 E9.77928
G1 X153.114 Y167.648 E9.80018
G1 X138.649 Y167.651 E10.28129
G1 X138.64 Y168.274 E10.30201
G1 X138.591 Y168.543 E10.31111
G1 X138.052 Y169.752 E10.35513
G1 X137.571 Y170.528 E10.3855
G1 X136.468 Y171.487 E10.43411
G1 X135.223 Y171.993 E10.47881
G1 X134.614 Y172.148 E10.49971
G1 X109.835 Y172.148 E11.32387
G1 X109.132 Y171.948 E11.34818
G1 X108.184 Y171.519 E11.38278
G1 X107.461 Y171.064 E11.4112
G1 X106.533 Y169.991 E11.45838
G1 X105.952 Y168.623 E11.50781
G1 X105.862 Y167.652 E11.54025
G1 X91.526 Y167.632 E12.01707
G1 X90.821 Y167.53 E12.04076
G1 X89.503 Y166.96 E12.08852
G1 X88.569 Y166.122 E12.13025
G1 X88.023 Y165.47 E12.15854
G1 X87.362 Y163.912 E12.21483
G1 X87.353 Y163.152 E12.24011
G1 X71.979 Y163.14 E12.75145
G1 X71.374 Y163.054 E12.77178
G1 X70.248 Y162.552 E12.81278
G1 X69.472 Y162.071 E12.84315
G1 X68.513 Y160.968 E12.89176
G1 X68.007 Y159.723 E12.93646
G1 X67.852 Y159.114 E12.95736
G1 X67.849 Y103.152 E14.81866
G0 F6000 X68.249 Y103.016
G1 F1200 X68.181 Y102.829 E14.82528
G1 X68.033 Y102.752 E14.83083
G1 X63.538 Y102.744 E14.98033
G1 X63.001 Y102.667 E14.99838
G1 X61.904 Y102.202 E15.03801
G1 X61.196 Y101.726 E15.06638
G1 X60.361 Y100.747 E15.10918
G1 X59.873 Y99.54 E15.15248
G1 X59.752 Y99.045 E15.16943
G1 X59.756 Y73.535 E16.01789
G1 X59.834 Y72.987 E16.0363
G1 X60.288 Y71.959 E16.07368
G1 X60.738 Y71.233 E16.10209
G1 X61.742 Y70.36 E16.14634
G1 X62.928 Y69.878 E16.18892
G1 X63.435 Y69.752 E16.2063
G1 X87.942 Y69.76 E17.0214
G1 X88.535 Y69.845 E17.04133
G1 X89.788 Y70.377 E17.08661
G1 X90.695 Y71.214 E17.12765
G1 X91.142 Y71.763 E17.1512
G1 X91.656 Y72.974 E17.19496
G1 X91.757 Y74.075 E17.23173
G1 X91.922 Y74.248 E17.23968
G1 X106.605 Y74.252 E17.72804
G1 X107.129 Y74.391 E17.74607
G1 X108.084 Y74.791 E17.78051
G1 X108.807 Y75.277 E17.80948
G1 X109.626 Y76.239 E17.85151
G1 X110.155 Y77.461 E17.89579
G1 X110.251 Y78.51 E17.93083
G1 X110.292 Y78.617 E17.93464
G1 X110.486 Y78.748 E17.94243
G1 X123.574 Y78.749 E18.37774
G1 X123.705 Y78.64 E18.3834
G1 X123.748 Y78.499 E18.38831
G1 X123.756 Y67.035 E18.7696
G1 X123.834 Y66.487 E18.78801
G1 X124.288 Y65.459 E18.82539
G1 X124.738 Y64.733 E18.8538
G1 X125.742 Y63.86 E18.89805
G1 X126.928 Y63.378 E18.94063
G1 X127.435 Y63.252 E18.958
G1 X171.439 Y63.252 E20.42158
G1 X172.174 Y63.401 E20.44653
G1 X173.264 Y63.868 E20.48597
G1 X174.069 Y64.579 E20.52169
G1 X174.637 Y65.241 E20.5507
G1 X175.102 Y66.367 E20.59122
G1 X175.248 Y66.931 E20.6106
G1 X175.244 Y158.965 E23.67166
G1 X175.166 Y159.513 E23.69007
G1 X174.712 Y160.541 E23.72745
G1 X174.262 Y161.267 E23.75586
G1 X173.258 Y162.14 E23.80011
G1 X172.072 Y162.622 E23.84269
G1 X171.565 Y162.748 E23.86007
G1 X156.962 Y162.751 E24.34576
G1 X156.839 Y162.821 E24.35047
G1 X156.75 Y162.94 E24.35541
G1 X156.74 Y163.767 E24.38292
G1 X156.706 Y163.923 E24.38823
G1 X156.212 Y165.041 E24.42888
G1 X155.762 Y165.767 E24.45729
G1 X154.758 Y166.64 E24.50154
G1 X153.572 Y167.122 E24.54412
G1 X153.065 Y167.248 E24.5615
G1 X138.46 Y167.251 E25.04726
G1 X138.304 Y167.367 E25.05373
G1 X138.252 Y167.48 E25.05787
G1 X138.24 Y168.268 E25.08408
G1 X138.206 Y168.423 E25.08936
G1 X137.712 Y169.541 E25.13001
G1 X137.262 Y170.267 E25.15842
G1 X136.258 Y171.14 E25.20267
G1 X135.072 Y171.622 E25.24525
G1 X134.565 Y171.748 E25.26263
G1 X109.889 Y171.748 E26.08335
G1 X109.296 Y171.583 E26.10383
G1 X108.397 Y171.18 E26.13659
G1 X107.723 Y170.756 E26.16308
G1 X106.876 Y169.777 E26.20614
G1 X106.344 Y168.524 E26.25141
G1 X106.246 Y167.458 E26.28702
G1 X106.171 Y167.331 E26.29192
G1 X106.011 Y167.252 E26.29786
G1 X91.584 Y167.236 E26.7777
G1 X90.93 Y167.141 E26.79968
G1 X89.72 Y166.618 E26.84352
G1 X88.876 Y165.865 E26.88114
G1 X88.367 Y165.257 E26.90752
G1 X87.761 Y163.829 E26.95911
G1 X87.75 Y162.934 E26.98888
G1 X87.616 Y162.786 E26.99552
G1 X87.497 Y162.752 E26.99964
G1 X72.035 Y162.744 E27.51391
G1 X71.487 Y162.666 E27.53232
G1 X70.459 Y162.212 E27.5697
G1 X69.733 Y161.762 E27.5981
G1 X68.86 Y160.758 E27.64236
G1 X68.378 Y159.572 E27.68494
G1 X68.252 Y159.065 E27.70231
G1 X68.249 Y103.016 E29.56651
G0 F6000 X68.649 Y102.946
G1 F1200 X68.526 Y102.611 E29.57838
G1 X68.365 Y102.447 E29.58602
G1 X68.106 Y102.352 E29.5952
G1 X63.595 Y102.348 E29.74523
G1 X63.108 Y102.278 E29.7616
G1 X62.099 Y101.851 E29.79804
G1 X61.464 Y101.423 E29.82351
G1 X60.707 Y100.536 E29.86229
G1 X60.262 Y99.445 E29.90148
G1 X60.152 Y98.995 E29.91689
G1 X60.152 Y73.592 E30.7618
G1 X60.223 Y73.096 E30.77846
G1 X60.628 Y72.17 E30.81208
G1 X61.047 Y71.494 E30.83853
G1 X61.952 Y70.707 E30.87842
G1 X63.079 Y70.249 E30.91888
G1 X63.484 Y70.152 E30.93273
G1 X87.885 Y70.156 E31.74431
G1 X88.428 Y70.234 E31.76256
G1 X89.567 Y70.718 E31.80372
G1 X90.385 Y71.467 E31.84061
G1 X90.797 Y71.973 E31.86231
G1 X91.264 Y73.073 E31.90206
G1 X91.356 Y74.079 E31.93566
G1 X91.425 Y74.29 E31.94304
G1 X91.55 Y74.462 E31.95012
G1 X91.736 Y74.601 E31.95784
G1 X92.003 Y74.648 E31.96686
G1 X106.551 Y74.652 E32.45072
G1 X107.026 Y74.778 E32.46707
G1 X107.892 Y75.144 E32.49834
G1 X108.538 Y75.578 E32.52422
G1 X109.283 Y76.453 E32.56245
G1 X109.763 Y77.562 E32.60264
G1 X109.858 Y78.602 E32.63737
G1 X109.952 Y78.85 E32.64619
G1 X110.207 Y79.076 E32.65753
G1 X110.422 Y79.148 E32.66507
G1 X123.579 Y79.149 E33.10267
G1 X123.754 Y79.105 E33.10867
G1 X123.937 Y78.986 E33.11593
G1 X124.063 Y78.834 E33.1225
G1 X124.148 Y78.559 E33.13207
G1 X124.152 Y67.092 E33.51347
G1 X124.223 Y66.596 E33.53013
G1 X124.628 Y65.67 E33.56375
G1 X125.047 Y64.994 E33.5902
G1 X125.952 Y64.207 E33.63009
G1 X127.079 Y63.749 E33.67055
G1 X127.484 Y63.652 E33.6844
G1 X171.399 Y63.652 E35.14502
G1 X172.051 Y63.784 E35.16715
G1 X173.047 Y64.211 E35.20319
G1 X173.765 Y64.84 E35.23494
G1 X174.292 Y65.454 E35.26185
G1 X174.732 Y66.52 E35.30021
G1 X174.848 Y66.982 E35.31605
G1 X174.848 Y158.908 E38.37352
G1 X174.777 Y159.404 E38.39019
G1 X174.372 Y160.33 E38.4238
G1 X173.953 Y161.006 E38.45026
G1 X173.048 Y161.793 E38.49015
G1 X171.921 Y162.251 E38.53061
G1 X171.516 Y162.348 E38.54446
G1 X157.002 Y162.351 E39.0272
G1 X156.802 Y162.382 E39.03393
G1 X156.569 Y162.514 E39.04284
G1 X156.393 Y162.751 E39.05265
G1 X156.351 Y162.908 E39.05806
G1 X156.34 Y163.762 E39.08647
G1 X155.872 Y164.83 E39.12525
G1 X155.453 Y165.506 E39.1517
G1 X154.548 Y166.293 E39.19159
G1 X153.421 Y166.751 E39.23205
G1 X153.016 Y166.848 E39.2459
G1 X138.508 Y166.851 E39.72844
G1 X138.281 Y166.885 E39.73608
G1 X137.985 Y167.106 E39.74836
G1 X137.853 Y167.388 E39.75872
G1 X137.84 Y168.262 E39.78779
G1 X137.372 Y169.33 E39.82657
G1 X136.953 Y170.006 E39.85303
G1 X136.048 Y170.793 E39.89292
G1 X134.921 Y171.251 E39.93338
G1 X134.516 Y171.348 E39.94723
G1 X109.943 Y171.348 E40.76453
G1 X109.458 Y171.217 E40.78124
G1 X108.61 Y170.841 E40.81209
G1 X107.987 Y170.449 E40.83657
G1 X107.218 Y169.56 E40.87567
G1 X106.736 Y168.425 E40.91668
G1 X106.636 Y167.329 E40.95329
G1 X106.474 Y167.057 E40.96382
G1 X106.297 Y166.926 E40.97114
G1 X106.077 Y166.852 E40.97886
G1 X91.641 Y166.84 E41.459
G1 X91.04 Y166.753 E41.4792
G1 X89.937 Y166.276 E41.51917
G1 X89.183 Y165.608 E41.55268
G1 X88.711 Y165.044 E41.57714
G1 X88.16 Y163.746 E41.62404
G1 X88.149 Y162.908 E41.65191
G1 X88.098 Y162.734 E41.65794
G1 X87.937 Y162.526 E41.66669
G1 X87.794 Y162.42 E41.67261
G1 X87.553 Y162.352 E41.68094
G1 X72.092 Y162.348 E42.19517
G1 X71.596 Y162.277 E42.21184
G1 X70.67 Y161.872 E42.24546
G1 X69.994 Y161.453 E42.27191
G1 X69.207 Y160.548 E42.3118
G1 X68.749 Y159.421 E42.35226
G1 X68.652 Y159.016 E42.36611
G1 X68.649 Y102.946 E44.23101
G0 F6000 X69.049 Y102.905
G1 F1200 X69.052 Y158.969 E46.0957
G1 X69.138 Y159.328 E46.10798
G1 X69.553 Y160.336 E46.14424
G1 X70.255 Y161.144 E46.17984
G1 X70.881 Y161.532 E46.20433
G1 X71.708 Y161.889 E46.23429
G1 X72.092 Y161.948 E46.24721
G1 X87.583 Y161.952 E46.76245
G1 X87.794 Y161.985 E46.76955
G1 X87.993 Y162.069 E46.77673
G1 X88.219 Y162.237 E46.7861
G1 X88.461 Y162.549 E46.79923
G1 X88.548 Y162.848 E46.80959
G1 X88.559 Y163.663 E46.8367
G1 X89.055 Y164.831 E46.87891
G1 X89.49 Y165.351 E46.90145
G1 X90.156 Y165.935 E46.93092
G1 X91.149 Y166.364 E46.96689
G1 X91.699 Y166.444 E46.98538
G1 X106.143 Y166.452 E47.46579
G1 X106.486 Y166.568 E47.47783
G1 X106.755 Y166.767 E47.48896
G1 X106.898 Y166.948 E47.49663
G1 X107.027 Y167.222 E47.50671
G1 X107.128 Y168.326 E47.54358
G1 X107.56 Y169.343 E47.58033
G1 X108.251 Y170.142 E47.61546
G1 X108.823 Y170.502 E47.63794
G1 X109.619 Y170.851 E47.66685
G1 X109.995 Y170.948 E47.67977
G1 X134.469 Y170.948 E48.49377
G1 X134.828 Y170.862 E48.50605
G1 X135.836 Y170.447 E48.54231
G1 X136.644 Y169.745 E48.57791
G1 X137.032 Y169.119 E48.60241
G1 X137.441 Y168.176 E48.63659
G1 X137.454 Y167.314 E48.66527
G1 X137.558 Y167.034 E48.6752
G1 X137.675 Y166.846 E48.68257
G1 X137.933 Y166.615 E48.69408
G1 X138.156 Y166.499 E48.70244
G1 X138.475 Y166.451 E48.71317
G1 X152.969 Y166.448 E49.19525
G1 X153.328 Y166.362 E49.20752
G1 X154.336 Y165.947 E49.24378
G1 X155.144 Y165.245 E49.27938
G1 X155.532 Y164.619 E49.30388
G1 X155.941 Y163.676 E49.33806
G1 X155.952 Y162.853 E49.36544
G1 X156.021 Y162.592 E49.37442
G1 X156.18 Y162.334 E49.3845
G1 X156.325 Y162.192 E49.39125
G1 X156.668 Y161.998 E49.40436
G1 X156.974 Y161.951 E49.41465
G1 X171.469 Y161.948 E49.89676
G1 X171.828 Y161.862 E49.90904
G1 X172.836 Y161.447 E49.94529
G1 X173.644 Y160.745 E49.98089
G1 X174.032 Y160.119 E50.00539
G1 X174.389 Y159.292 E50.03535
G1 X174.448 Y158.908 E50.04827
G1 X174.448 Y67.031 E53.10411
G1 X174.362 Y66.673 E53.11636
G1 X173.946 Y65.665 E53.15263
G1 X173.501 Y65.141 E53.17549
G1 X172.831 Y64.554 E53.20512
G1 X171.928 Y64.167 E53.23779
G1 X171.36 Y64.052 E53.25707
G1 X127.531 Y64.052 E54.71483
G1 X127.172 Y64.138 E54.72711
G1 X126.164 Y64.553 E54.76336
G1 X125.356 Y65.255 E54.79896
G1 X124.968 Y65.881 E54.82346
G1 X124.611 Y66.708 E54.85342
G1 X124.552 Y67.092 E54.86634
G1 X124.548 Y78.588 E55.2487
G1 X124.517 Y78.789 E55.25546
G1 X124.408 Y79.044 E55.26469
G1 X124.206 Y79.288 E55.27522
G1 X123.915 Y79.477 E55.28676
G1 X123.628 Y79.549 E55.2966
G1 X110.357 Y79.548 E55.738
G1 X110.018 Y79.434 E55.7499
G1 X109.74 Y79.227 E55.76142
G1 X109.6 Y79.05 E55.76893
G1 X109.465 Y78.694 E55.78159
G1 X109.371 Y77.663 E55.81603
G1 X108.94 Y76.667 E55.85212
G1 X108.269 Y75.879 E55.88655
G1 X107.704 Y75.499 E55.90919
G1 X106.87 Y75.147 E55.9393
G1 X106.497 Y75.052 E55.9521
G1 X91.967 Y75.048 E56.43537
G1 X91.573 Y74.978 E56.44868
G1 X91.263 Y74.747 E56.46154
G1 X91.065 Y74.476 E56.4727
G1 X90.962 Y74.161 E56.48373
G1 X90.872 Y73.172 E56.51676
G1 X90.452 Y72.183 E56.55249
G1 X90.075 Y71.72 E56.57235
G1 X89.347 Y71.059 E56.60506
G1 X88.321 Y70.623 E56.64214
G1 X87.828 Y70.552 E56.6587
G1 X63.531 Y70.552 E57.46682
G1 X63.172 Y70.638 E57.4791
G1 X62.164 Y71.053 E57.51536
G1 X61.356 Y71.755 E57.55096
G1 X60.968 Y72.381 E57.57546
G1 X60.611 Y73.208 E57.60541
G1 X60.552 Y73.592 E57.61834
G1 X60.552 Y98.945 E58.46158
G1 X60.651 Y99.35 E58.47545
G1 X61.054 Y100.326 E58.51057
G1 X61.733 Y101.122 E58.54537
G1 X62.292 Y101.498 E58.56777
G1 X63.216 Y101.89 E58.60116
G1 X63.595 Y101.948 E58.61391
G1 X68.177 Y101.952 E58.76631
G1 X68.588 Y102.102 E58.78086
G1 X68.854 Y102.374 E58.79351
G1 X68.997 Y102.649 E58.80382
G1 X69.049 Y102.905 E58.81251
G0 F6000 X69.449 Y102.864
G1 F1200 X69.452 Y158.922 E60.67701
G1 X69.527 Y159.235 E60.68771
G1 X69.898 Y160.123 E60.71972
G1 X70.516 Y160.835 E60.75108
G1 X71.092 Y161.192 E60.77362
G1 X71.821 Y161.502 E60.79997
G1 X72.092 Y161.548 E60.80911
G1 X87.613 Y161.552 E61.32534
G1 X87.906 Y161.598 E61.3352
G1 X88.193 Y161.719 E61.34556
G1 X88.501 Y161.948 E61.35833
G1 X88.824 Y162.364 E61.37585
G1 X88.947 Y162.79 E61.39059
G1 X88.958 Y163.58 E61.41687
G1 X89.399 Y164.62 E61.45444
G1 X89.754 Y165.05 E61.47299
G1 X90.374 Y165.593 E61.5004
G1 X91.259 Y165.976 E61.53247
G1 X91.756 Y166.048 E61.54918
G1 X106.194 Y166.052 E62.02939
G1 X106.451 Y166.119 E62.03822
G1 X106.686 Y166.218 E62.0467
G1 X107.035 Y166.476 E62.06114
G1 X107.24 Y166.735 E62.07212
G1 X107.419 Y167.115 E62.08609
G1 X107.52 Y168.227 E62.12323
G1 X107.903 Y169.129 E62.15583
G1 X108.513 Y169.834 E62.18683
G1 X109.036 Y170.163 E62.20738
G1 X109.778 Y170.484 E62.23427
G1 X110.045 Y170.548 E62.2434
G1 X134.422 Y170.548 E63.05419
G1 X134.735 Y170.473 E63.06489
G1 X135.623 Y170.102 E63.0969
G1 X136.335 Y169.484 E63.12826
G1 X136.692 Y168.908 E63.1508
G1 X137.042 Y168.09 E63.18039
G1 X137.055 Y167.238 E63.20873
G1 X137.196 Y166.86 E63.22215
G1 X137.366 Y166.585 E63.2329
G1 X137.704 Y166.283 E63.24798
G1 X138.03 Y166.113 E63.26021
G1 X138.443 Y166.051 E63.2741
G1 X152.922 Y166.048 E63.75567
G1 X153.235 Y165.973 E63.76638
G1 X154.123 Y165.602 E63.79839
G1 X154.835 Y164.984 E63.82974
G1 X155.192 Y164.408 E63.85228
G1 X155.542 Y163.59 E63.88187
G1 X155.553 Y162.799 E63.90819
G1 X155.649 Y162.432 E63.9208
G1 X155.866 Y162.082 E63.9345
G1 X156.072 Y161.88 E63.9441
G1 X156.296 Y161.731 E63.95304
G1 X156.549 Y161.612 E63.96234
G1 X156.946 Y161.551 E63.9757
G1 X171.422 Y161.548 E64.45718
G1 X171.735 Y161.473 E64.46788
G1 X172.623 Y161.102 E64.49989
G1 X173.335 Y160.484 E64.53125
G1 X173.692 Y159.908 E64.55379
G1 X174.002 Y159.179 E64.58013
G1 X174.048 Y158.908 E64.58928
G1 X174.048 Y67.078 E67.64356
G1 X173.973 Y66.766 E67.65423
G1 X173.601 Y65.877 E67.68628
G1 X173.196 Y65.4 E67.70709
G1 X172.617 Y64.898 E67.73258
G1 X171.805 Y64.55 E67.76196
G1 X171.321 Y64.452 E67.77839
G1 X127.578 Y64.452 E69.23329
G1 X127.265 Y64.527 E69.24399
G1 X126.377 Y64.898 E69.276
G1 X125.665 Y65.516 E69.30736
